status/24/audio-volume-low-symbolic.svg

<?xml version="1.0" encoding="UTF-8" standalone="no"?>
<svg
   height="24"
   width="24"
   version="1.1"
   id="svg6"
   xmlns="http://www.w3.org/2000/svg"
   xmlns:svg="http://www.w3.org/2000/svg">
  <defs
     id="defs10" />
  <path
     id="path3916-2-6"
     style="font-variation-settings:normal;opacity:1;vector-effect:none;fill:#555761;fill-opacity:1;stroke:none;stroke-width:4;stroke-linecap:round;stroke-linejoin:round;stroke-miterlimit:4;stroke-dasharray:none;stroke-dashoffset:0;stroke-opacity:1;-inkscape-stroke:none;stop-color:#000000;stop-opacity:1"
     d="M 13,6 C 12.738549,6 12.502035,6.1005313 12.324219,6.2636719 L 9,9 H 7 C 6.446,9 6,9.446 6,10 v 4 c 0,0.554 0.446,1 1,1 h 2 l 3.345703,2.753906 c 0.0063,0.0055 0.01115,0.01228 0.01758,0.01758 l 0.02344,0.01758 C 12.555952,17.920485 12.76818,18 13,18 c 0.554,0 1,-0.446 1,-1 V 7 C 14,6.446 13.554,6 13,6 Z m 4.332031,2 c -0.414214,0 -0.75,0.3357864 -0.75,0.75 7.96e-4,0.1183202 0.02957,0.2347734 0.08399,0.3398438 l -0.0039,0.00195 C 17.206708,9.964083 17.495653,10.971666 17.496094,12 c -4.41e-4,1.028334 -0.289386,2.035917 -0.833985,2.908203 l 0.0039,0.002 c -0.05441,0.10507 -0.08319,0.221524 -0.08399,0.339844 0,0.414214 0.335786,0.75 0.75,0.75 0.236412,7.69e-4 0.459347,-0.109974 0.601563,-0.298828 l 0.0059,0.0039 C 18.632676,14.593611 19.000119,13.30993 19,12 19.000119,10.69007 18.632676,9.4063888 17.939453,8.2949219 l -0.0059,0.00391 C 17.791378,8.1099745 17.568443,7.9992306 17.332031,8 Z" />
  <g
     transform="translate(-593 295)"
     id="g4" />
</svg>

<svg
        xmlns='http://www.w3.org/2000/svg'
        xmlns:svg='http://www.w3.org/2000/svg'
        id='svg6'
        width='24'
        height='24'>
  <path
          id='path3916-2-6'
          opacity='1'
          fill='url(#gpa:foreground) #555761'
          fill-opacity='1'
          fill-rule='nonzero'
          stroke='none'
          stroke-opacity='1'
          stroke-width='4'
          stroke-linecap='round'
          stroke-linejoin='round'
          stroke-miterlimit='4'
          stroke-dasharray='none'
          stroke-dashoffset='0'
          d='M 13 6 C 12.7385 6, 12.502 6.10053, 12.3242 6.26367 L 9 9 L 7 9 C 6.446 9, 6 9.446, 6 10 L 6 14 C 6 14.554, 6.446 15, 7 15 L 9 15 L 12.3457 17.7539 C 12.352 17.7594, 12.3569 17.7662, 12.3633 17.7715 L 12.3867 17.7891 C 12.556 17.9205, 12.7682 18, 13 18 C 13.554 18, 14 17.554, 14 17 L 14 7 C 14 6.446, 13.554 6, 13 6 Z M 17.332 8 C 16.9178 8, 16.582 8.33579, 16.582 8.75 C 16.5828 8.86832, 16.6116 8.98477, 16.666 9.08984 L 16.6621 9.09179 C 17.2067 9.96408, 17.4957 10.9717, 17.4961 12 C 17.4957 13.0283, 17.2067 14.0359, 16.6621 14.9082 L 16.666 14.9102 C 16.6116 15.0153, 16.5828 15.1317, 16.582 15.25 C 16.582 15.6643, 16.9178 16, 17.332 16 C 17.5684 16.0008, 17.7914 15.8901, 17.9336 15.7012 L 17.9395 15.7051 C 18.6327 14.5936, 19.0001 13.3099, 19 12 C 19.0001 10.6901, 18.6327 9.40639, 17.9395 8.29492 L 17.9336 8.29883 C 17.7914 8.10997, 17.5684 7.99923, 17.332 8 Z'
          class="foreground">
  </path>
</svg>
